X: 1
T: Jenna Reid Of Quarff
M: 4/4
L: 1/8
R: reel
K: Emaj
GB B/2B/2B eB eg|a2 ga bg fe|c3 e cB GB|c2 BG F3 E|Fc c/2c/2c ec eg|
a2 ga be ga|bg g/2g/2g ga ge|1Bc ef e3 B:|2Bc ef e2 ga||
|:bg g/2g/2g ga ge|Bc ef ge ga|bg g/2g/2g ga ge|Bc ef ec BG|
Fc c/2c/2c ec eg|a2 ga be ga|bg g/2g/2g ga ge|Bc ef e2 ga:|
